src/icons/logos/solidjs.svg

<svg width="683" height="199" viewBox="0 0 683 199" fill="none" xmlns="http://www.w3.org/2000/svg">
<g clip-path="url(#clip0_463_519)">
<path d="M5.95809 126.662C12.075 132.619 20.2211 136.038 28.7572 136.232C38.3273 136.232 46.2084 130.603 46.2084 121.033C46.2084 99.0778 2.58043 104.426 2.58043 77.4046C2.58043 64.7384 13.8393 54.0425 29.8831 54.0425C38.4604 53.7874 46.8132 56.8065 53.2452 62.4866L49.0232 69.8048C43.777 65.0325 36.9741 62.3314 29.8831 62.2051C18.6243 62.2051 11.5875 69.5234 11.306 77.1231C11.306 97.9519 54.934 92.0411 54.934 120.751C54.934 133.699 44.8011 144.395 28.4758 144.395C23.3535 144.496 18.2645 143.55 13.5211 141.614C8.77772 139.677 4.47997 136.793 0.891602 133.136L5.95809 126.662ZM144.16 54.6054C150.032 54.5789 155.85 55.7205 161.276 57.9638C166.702 60.207 171.627 63.507 175.766 67.6718C179.905 71.8366 183.174 76.783 185.382 82.2231C187.591 87.6631 188.696 93.4882 188.633 99.3593C188.707 105.274 187.616 111.145 185.421 116.637C183.226 122.129 179.971 127.136 175.841 131.37C171.712 135.604 166.788 138.984 161.352 141.315C155.916 143.646 150.075 144.884 144.16 144.958H143.879C137.965 144.884 132.123 143.646 126.687 141.315C121.251 138.984 116.328 135.604 112.198 131.37C108.068 127.136 104.813 122.129 102.618 116.637C100.423 111.145 99.3321 105.274 99.4065 99.3593V99.0778C99.38 93.2065 100.522 87.3885 102.765 81.9625C105.008 76.5364 108.308 71.6108 112.473 67.4722C116.638 63.3336 121.584 60.0647 127.024 57.8557C132.464 55.6468 138.289 54.5419 144.16 54.6054ZM143.879 137.076C153.579 136.855 162.795 132.79 169.498 125.775C176.202 118.76 179.845 109.369 179.626 99.6689V99.3593C179.626 78.5304 163.863 62.4866 144.16 62.4866C139.396 62.4929 134.681 63.45 130.292 65.3017C125.902 67.1534 121.927 69.8625 118.598 73.2703C115.268 76.6781 112.653 80.716 110.904 85.1475C109.155 89.579 108.309 94.3149 108.414 99.0778C108.414 120.47 124.176 136.795 143.879 137.076ZM239.298 56.2942H247.742L247.46 135.951H287.992V143.55H238.735L239.298 56.2942ZM334.716 56.5757H343.16L342.879 144.113H334.435L334.716 56.5757ZM400.017 56.5757H428.165C454.341 56.5757 472.074 72.6196 472.074 100.485C472.074 128.351 454.341 144.113 428.165 144.113H400.017V56.5757ZM427.039 136.513C448.431 136.513 462.786 123.847 463.067 100.485C463.349 77.1231 448.712 64.4569 427.32 64.4569H408.462L408.18 136.513H427.039ZM545.735 144.113C553.016 144.337 560.113 141.804 565.607 137.02C568.335 134.485 570.471 131.381 571.862 127.926C573.254 124.472 573.866 120.754 573.657 117.036V57.6171H556.065V115.741C556.263 118.815 555.253 121.845 553.25 124.185C552.239 125.211 551.02 126.01 549.676 126.53C548.332 127.049 546.892 127.276 545.454 127.197C539.937 127.197 535.912 123.96 533.378 117.486L518.517 125.789C523.396 138.005 532.487 144.113 545.791 144.113H545.735ZM651.174 144.31C660.941 144.31 668.597 141.89 674.086 137.02C676.791 134.645 678.934 131.698 680.36 128.392C681.786 125.087 682.46 121.506 682.333 117.908C682.445 114.889 681.869 111.884 680.65 109.119C679.431 106.354 677.601 103.903 675.296 101.949C670.567 97.8957 662.996 94.4054 652.581 91.4218C648.823 90.5758 645.242 89.0803 641.998 87.0027C641.026 86.3249 640.235 85.4185 639.695 84.3633C639.155 83.308 638.883 82.1363 638.902 80.9511C638.868 79.7239 639.132 78.5068 639.671 77.4038C640.211 76.3009 641.009 75.345 641.998 74.618C644.38 72.9179 647.267 72.0746 650.189 72.2255C653.641 71.9929 657.075 72.8883 659.974 74.7768C662.872 76.6654 665.079 79.4447 666.261 82.6962L680.813 74.7306C678.553 69.072 674.538 64.2873 669.357 61.0792C663.791 57.7899 657.412 56.1318 650.949 56.2942C643.299 56.0857 635.838 58.6894 629.979 63.6125C627.2 65.8014 624.968 68.6063 623.458 71.8059C621.949 75.0054 621.204 78.512 621.282 82.0488C621.21 84.9906 621.753 87.915 622.878 90.6343C624.002 93.3537 625.683 95.8078 627.812 97.8394C631.734 101.78 638.649 105.242 648.556 108.226C653.027 109.295 657.315 111.021 661.279 113.348C662.319 113.932 663.181 114.788 663.771 115.824C664.362 116.861 664.658 118.039 664.628 119.231C664.621 120.533 664.285 121.813 663.65 122.949C663.015 124.086 662.102 125.044 660.997 125.733C658.241 127.529 654.996 128.424 651.709 128.295C647.778 128.39 643.908 127.308 640.597 125.186C637.287 123.064 634.687 120 633.132 116.388L617.932 124.241C620.433 130.392 624.87 135.559 630.57 138.962C636.803 142.637 643.941 144.49 651.174 144.31Z" fill="#222222"/>
</g>
<defs>
<clipPath id="clip0_463_519">
<rect width="682" height="199" fill="white" transform="translate(0.539062)"/>
</clipPath>
</defs>
</svg>

<svg xmlns="http://www.w3.org/2000/svg" width="683" height="199" fill="none">
    <g clip-path="url(#a)">
        <path fill="#222"
            d="M5.958 126.662a33.778 33.778 0 0 0 22.8 9.57c9.57 0 17.45-5.629 17.45-15.199 0-21.955-43.628-16.607-43.628-43.628 0-12.667 11.26-23.363 27.303-23.363a33.777 33.777 0 0 1 23.362 8.445l-4.222 7.318a29.217 29.217 0 0 0-19.14-7.6c-11.259 0-18.296 7.318-18.577 14.918 0 20.829 43.628 14.918 43.628 43.628 0 12.948-10.133 23.644-26.458 23.644A37.612 37.612 0 0 1 .892 133.136l5.066-6.474ZM144.16 54.605a44.274 44.274 0 0 1 44.473 44.754 45.036 45.036 0 0 1-44.473 45.599h-.281a45.035 45.035 0 0 1-44.472-45.599v-.281a44.279 44.279 0 0 1 27.617-41.222 44.276 44.276 0 0 1 17.136-3.25Zm-.281 82.471a36.588 36.588 0 0 0 35.747-37.407v-.31c0-20.829-15.763-36.872-35.466-36.872a35.799 35.799 0 0 0-33.256 22.66 35.795 35.795 0 0 0-2.49 13.93c0 21.393 15.762 37.718 35.465 37.999Zm95.419-80.782h8.444l-.282 79.657h40.532v7.599h-49.257l.563-87.256Zm95.418.282h8.444l-.281 87.537h-8.444l.281-87.537Zm65.301 0h28.148c26.176 0 43.909 16.044 43.909 43.909 0 27.866-17.733 43.628-43.909 43.628h-28.148V56.576Zm27.022 79.937c21.392 0 35.747-12.666 36.028-36.028.282-23.362-14.355-36.028-35.747-36.028h-18.858l-.282 72.056h18.859Zm118.696 7.6a28.906 28.906 0 0 0 19.872-7.093 25.326 25.326 0 0 0 8.05-19.984V57.617h-17.592v58.124a11.817 11.817 0 0 1-2.815 8.444 10.169 10.169 0 0 1-7.796 3.012c-5.517 0-9.542-3.237-12.076-9.711l-14.861 8.303c4.879 12.216 13.97 18.324 27.274 18.324h-.056Zm105.439.197c9.767 0 17.423-2.42 22.912-7.29a24.3 24.3 0 0 0 8.247-19.112 19.953 19.953 0 0 0-7.037-15.959c-4.729-4.053-12.3-7.544-22.715-10.527a33.102 33.102 0 0 1-10.583-4.42 7.238 7.238 0 0 1-3.096-6.05 7.6 7.6 0 0 1 3.096-6.334 12.95 12.95 0 0 1 8.191-2.392 15.96 15.96 0 0 1 16.072 10.47l14.552-7.965a28.481 28.481 0 0 0-11.456-13.652 34.48 34.48 0 0 0-18.408-4.785 31.273 31.273 0 0 0-20.97 7.319 22.835 22.835 0 0 0-8.697 18.436 21.107 21.107 0 0 0 6.53 15.79c3.922 3.941 10.837 7.403 20.744 10.387a46.485 46.485 0 0 1 12.723 5.122 6.57 6.57 0 0 1 2.492 2.476 6.548 6.548 0 0 1 .857 3.407 7.706 7.706 0 0 1-3.631 6.502 15.87 15.87 0 0 1-9.288 2.562 19.708 19.708 0 0 1-18.577-11.907l-15.2 7.853a30.544 30.544 0 0 0 12.638 14.721 38.672 38.672 0 0 0 20.604 5.348Z" />
    </g>
    <defs>
        <clipPath id="a">
            <path fill="#fff" d="M.54 0h682v199H.54z" />
        </clipPath>
    </defs>
</svg>
